!!!COM: Claude Debussy
!!!CNT: Francais
!!!TXO: Francais
!!!OTL: "Paysage sentimental"
!!!LYR: Bourget
!!!OPR: 
!!!OPS: Op.
!!!ONM: No. 
!!!ENC: Emily Thomas
!!!YOR: CD Sheet Music French Art Songs, The Ultimate Collection
!!!YOR: CD Sheet Music, LLC 2003
!!!ODT: 1883/
!!NB: Vocal melody and text encoded.
!!NB: Meter is marked as 3/4 in the score, but is written in 3/8. 
**kern	**silbe
*tb16	*
=1	=1
*clefG2	*
*k[b-]	*
*M3/8	*
*MM[Allegretto ma non troppo]	*
4.r	.
=2	=2
4.r	.
=3	=3
4.r	.
=4	=4
4.r	.
=5	=5
4.r	.
=6	=6
4.r	.
=7	=7
4.r	.
=8	=8
4.r	.
=9	=9
4.r	.
=10	=10
4.r	.
=11	=11
{4.cc	{Le
=12	=12
4cc	ciel
8cc	d'hi-
=13	=13
4dd-	-ver,
8dd-	si
=14	=14
4dd-	doux,
8dd-	si
=15	=15
4ddn	tris-
8a	-te,
=16	=16
8f	si
8d	|
8f	dor-
=17	=17
[4.a	-mant,
=18	=18
4a]}	|}
8r	.
=19	=19
{4.f	{Ou\
=20	=20
4f	le
8f	so-
=21	=21
4g	-leil
8b-	er-
=22	=22
8.dd-	-rait
8.ff	par-
=23	=23
8.ff	-mi
8.ddn	des
=24	=24
8cc	va-
8a	|
8f	-peurs
=25	=25
4.d-	blan-
=26	=26
4d-}	-ches.}
8r	.
=27	=27
{4.dn	{E-
=28	=28
4f	-tait,
8a	pa-
=29	=29
4g	-reil
8e-	au
=30	=30
4g	doux,
8e-	au
=31	=31
8.d	pro-
8.f	-fond
=32	=32
8.a	sen-
8.dd	-ti-
=33	=33
4.cc}	-ment}
=34	=34
{8cc	{Qui
8ee-	nous
8gg	ren-
=35	=35
4gg	-dait
8ff	heu-
=36	=36
[4.dd	-reux
=37	=37
8dd]	|
8cc	me/-
8b-	-lan-
=38	=38
8a	-co-
8g	-li-
8f	-que-
=39	=39
[4.en	-ment
=40	=40
4.en_	|
=41	=41
4.en_	|
=42	=42
4.en]}	|}
=43	=43
4.r	.
=44	=44
{4.cc	{Par
=45	=45
4dd	cet
8dd	a\-
=46	=46
4ff	-pre\s
8ff	mi-
=47	=47
[4.aa	-di-
=48	=48
4.aa_	|
=49	=49
8aa]	|
8gg	de
8ff	bai-
=50	=50
8dd	-sers
8cc	sous
8a	les
=51	=51
16g	bran-
16a	|
8g	|
8f	|
=52	=52
8g	|
[4a-	|
=54	=54
4.a-]	|
=55	=55
4an}	-ches}
8r	.
=56	=56
4.r	.
=57	=57
4.r	.
=58	=58
4.r	.
=59	=59
4.r	.
=60	=60
4.r	.
=61	=61
8r	.
{8g	{Bran-
8g	-ches
=62	=62
4g	mor-
8g	-tes
=63	=63
8r	.
8cc	qu'au-
8g	-cun
=64	=64
8g	souf-
16g	-fle
16f	ne
16d	re-
16f	-mu-
=65	=65
[4.g	-ait
=66	=66
4g]}	|}
8r	.
=67	=67
8r	.
{8a-	{Bran-
8a-	-ches
=68	=68
4a-	noi-
8a-	-res
=69	=69
8dd-	a-
8a-	-vec
16a-	quell
16a-	que
=70	=70
8.a-	feuil-
16g-	|
16e-	-le
16g-	fa-
=71	=71
4.a-	-ne/-
=72	=72
4a-}	-e}
8r	.
=73	=73
{4.ee-	{Ah!
=74	=74
8cc-	que
8g-	|
8e-	ta
=75	=75
4.b-	bou-
=76	=76
4b-}	-che}
{8b-	{s'est
=77	=77
4aa-	a\
8gg-	ma
=78	=78
8.ff	bou-
16ee-	|
16b-	-che
16g-	don-
=79	=79
4.dd-	-ne/-
=80	=80
4cc}	-e}
8r	.
=81	=81
8r	.
{8aa-	{Plus
8gg	ten-
=82	=82
8gg-	-dre-
8ee-	-ment
8b-	en-
=83	=83
4.dd-	-cor
=84	=84
4cc}	|}
8r	.
=85	=85
{8cc	{Dans
8dd-	ce
8b-	grand
=86	=86
8.b-	bois
16g-	|
16a-	mu-
16b-	|
=87	=87
[4.f	-et
=88	=88
4f]}	|}
8r	.
=89	=89
{4e	{Et
8e	dans
=90	=90
8e	cet-
8e	-te
8e	lan-
=91	=91
4.e}	-gueur}
=92	=92
{4a	{de
8e	la
=93	=93
4.g	mort
=94	=94
4e	de
8e	l'an-
=95	=95
4.e	-ne/-
=96	=96
4e}	-e}
8r	.
=97	=97
4.r	.
=98	=98
4.r	.
=99	=99
4.r	.
=100	=100
4.r	.
=101	=101
4.r	.
=102	=102
4.r	.
=103	=103
{4.cc	{La
=104	=104
4cc	mort
8cc	de
=105	=105
4cc#	tout
8cc#	si-
=106	=106
4cc#	-non
8cc#	de
=107	=107
4dd	toi
8a	que
=108	=108
8f	j'ai-
8d	|
8f	-me
=109	=109
[4.a	tant
=110	=110
4a]}	|}
8r	.
=111	=111
{4f	{Et
8f	si-
=112	=112
8f	-non
8f	du
8f	bon-
=113	=113
4.g	-heur
=114	=114
8b-	dont
8dd-	|
8ff	mon
=115	=115
4ff	a\me
8ddn	|
=116	=116
8cc	|
8a	est
8f	com-
=117	=117
4.d-	ble/-
=118	=118
4d-}	-e}
8r	.
=119	=119
{4.dn	{Bon-
=120	=120
4f	-heur
8a	qui
=121	=121
4g	dort
8e-	au
=122	=122
8.g	fond
8.e-	de
=123	=123
8.d	cette
8.f	a\me
=124	=124
4a	i-
8dd	-so-
=125	=125
4cc	-le/
16cc}	-e}
16r	.
=126	=126
{8cc	{Mys-
8ee-	-te/-
8gg	-ri-
=127	=127
4gg	-eux,
8ff	pai-
=128	=128
[4.dd	-sible
=129	=129
8dd]	|
8cc	et
8b-	frais
=130	=130
8a	com-
8g	-me
8f	l'e/-
=131	=131
[4.en	-tang
=132	=132
4.en_	|
=133	=133
4.en_	|
=134	=134
4.en]}	|}
=135	=135
{4.a	{Qui
=136	=136
4cc	pa^-
8cc	-lis-
=137	=137
4.dd	-sait
=138	=138
4.ff	au
=139	=139
[4.aa	fond
=140	=140
4.aa_	|
=141	=141
8aa]	|
8gg	de
8ff	la
=142	=142
8dd	pa^-
8cc	-le
8a	val-
=143	=143
16g	-le/-
16a	|
8g	|
8f	|
=144	=144
8g	|
[4g#	|
=145	=145
4.g#_	|
=146	=146
4.g#]	|
=147	=147
4.a}	-e}
==	==
*-	*-
